packages/ui-icons/src/Basic/32/Statistics_32.svg

<svg xmlns="http://www.w3.org/2000/svg" viewBox="0 0 40 40"><path d="M19 8a13 13 0 1 0 13 13v-1H20V8ZM8 21a11 11 0 0 1 10-11v12l7.69 7.69A11 11 0 0 1 8 21Zm19.18 7.34L20.85 22H30a11 11 0 0 1-2.82 6.35ZM36 17A13 13 0 0 0 23 4h-1v14h14Zm-12-1V6a11 11 0 0 1 10 10Z"/></svg>

<svg id="Ready" xmlns="http://www.w3.org/2000/svg" viewBox="0 0 40 40"><title>Megaicons_work_32_1.8_cp</title><path d="M19,8A13,13,0,1,0,32,21V20H20V8ZM8,21a11,11,0,0,1,10-11V22h0l7.69,7.69A11,11,0,0,1,8,21Zm19.18,7.34L20.85,22H30A11,11,0,0,1,27.18,28.35ZM36,17A13,13,0,0,0,23,4H22V18H36ZM24,16v-10A11,11,0,0,1,34,16Z"/></svg>
